X: 4854
T: Braeroy Road
R: jig
M: 6/8
K: Amajor
AF|:~E3 EFA|B2A c2B|AcB Ace|~f3 efg|
a2a gfe|gaf ecB|~A3 BAB|1 cBB BAF:|2 cAG ~A3||
|:Ace Adf|Aeg a2b|c'ba bge|gaf efg|~a3 gfe|
faf ecB|~A3 BAB|1 cBB BcB:|2 cAG ~A3||

